assets/spark/icons/SendFill.svg

<svg viewBox="0 0 24 24" xmlns="http://www.w3.org/2000/svg">
<path d="M5.52941 11.1667H22C21.916 11 21.8319 10.8333 21.7479 10.6667C21.4958 10.25 21.1597 10 20.7395 9.75L4.85714 2.33333C4.60504 2.16667 4.18487 2 3.76471 2C3.34454 2 2.84034 2.16667 2.5042 2.5C2.16807 2.83333 2 3.25 2 3.75C2 4.08333 2.16807 4.5 2.42017 4.75L5.52941 11.1667Z" />
<path d="M2.42017 19.25C2.16807 19.5833 2.08403 19.9167 2.08403 20.3333C2.08403 20.75 2.2521 21.25 2.58824 21.5833C2.92437 21.8333 3.34454 22 3.84874 22C4.26891 22 4.60504 21.8333 4.94118 21.6667L20.7395 14.1667C21.1597 14 21.4958 13.6667 21.7479 13.25C21.8319 13.0833 21.916 13 22 12.8333H5.52941L2.42017 19.25Z" />
</svg>

<svg viewBox="0 0 24 24" xmlns="http://www.w3.org/2000/svg">
  <path d="m5.53,11.17h16.47c-.08-.17-.17-.33-.25-.5-.25-.42-.59-.67-1.01-.92L4.86,2.33c-.25-.17-.67-.33-1.09-.33s-.92.17-1.26.5c-.34.33-.5.75-.5,1.25,0,.33.17.75.42,1l3.11,6.42Z"/>
  <path d="m2.42,19.25c-.25.33-.34.67-.34,1.08s.17.92.5,1.25c.34.25.76.42,1.26.42.42,0,.76-.17,1.09-.33l15.8-7.5c.42-.17.76-.5,1.01-.92.08-.17.17-.25.25-.42H5.53l-3.11,6.42Z"/>
</svg>
